assets/Sari/Flat/sari_flat.svg

<svg width="32" height="32" viewBox="0 0 32 32" fill="none" xmlns="http://www.w3.org/2000/svg">
<path d="M19.3892 4.95807H25.0032V15L22.5001 15.5L19.3892 15V4.95807Z" fill="#00F397"/>
<path d="M10.3872 20L8.90997 28.07C8.85937 28.3203 8.8107 28.5095 8.83883 28.733C8.86695 28.9566 9.07198 29.3578 9.07198 29.3578L24.7494 29.3832C24.7494 29.3832 24.9611 28.9821 24.9908 28.7572C25.0204 28.5323 24.9648 28.332 24.92 28.09L22.7406 16L23 15.5L22.5604 15L21.87 11.17L10.3872 20Z" fill="#37C9CD"/>
<path d="M11.9999 12.08V7.41L10.4999 8.35C10.4137 8.39617 10.3127 8.40632 10.219 8.37821C10.1253 8.3501 10.0465 8.28602 9.99993 8.2L8.18993 4.87C8.13965 4.77592 8.12613 4.66651 8.152 4.56302C8.17787 4.45953 8.24129 4.36935 8.32993 4.31L11.4899 2.31C11.7881 2.11603 12.1343 2.0087 12.4899 2H20.7499L21.4999 2.31H22.4299L25.5899 4.31C25.6786 4.36935 25.742 4.45953 25.7679 4.56302C25.7937 4.66651 25.7802 4.77592 25.7299 4.87L24.0499 8.2C24.027 8.24527 23.9949 8.28532 23.9558 8.31767C23.9167 8.35003 23.8713 8.37398 23.8225 8.38805C23.7738 8.40212 23.7226 8.406 23.6723 8.39946C23.6219 8.39291 23.5735 8.37608 23.5299 8.35L21.9999 7.41V12.08H11.9999Z" fill="#FF8257"/>
<path d="M14.1801 2V2.1C14.1606 2.87743 14.4437 3.63207 14.9698 4.2048C15.4959 4.77753 16.2239 5.12358 17.0001 5.17C17.7747 5.1211 18.5001 4.77396 19.0241 4.2015C19.548 3.62904 19.8298 2.87581 19.8101 2.1C19.8101 2.1 19.8101 2.03 19.8101 2H14.1801Z" fill="#8C5543"/>
<path d="M10.0632 19.8483C9.9608 20.3684 10.4191 19.8618 11.0001 19.5L22.0001 11.6251C22.0001 11.6251 22.7151 6.48787 22.5001 3.5C22.5001 2.82543 22.6958 2.48455 22.1915 2.17189C21.9415 2.04689 21.61 1.99705 21.3672 2C21.3672 2 21.0445 2 20.6331 2C20.2722 2 20.5001 2.09941 20.5001 2.5C20.5001 2.90059 20.5001 3.5 20.5001 3.5C20.5001 5.6 18.0001 7.5 18.0001 7.5C16.3999 8.62264 14.0001 11 11.42 12.02L10.0632 19.8483Z" fill="#6AFCAC"/>
<path d="M17.7099 7.24002C17.7099 7.24002 20.0013 5.87996 20.0013 3.77996V2.62899C20.0013 2.2284 20.2721 2 20.633 2H21.0251V3.42819C21.0251 5.63207 19.7217 7.05402 18.1602 8.14844C16.7471 9.13877 13.1172 11.6992 11.2422 13.0312L11.4199 12.02C11.4428 11.8788 11.4957 11.7441 11.575 11.6251C11.6544 11.5061 11.7583 11.4054 11.8799 11.33L17.7099 7.24002ZM10.0631 19.8483C9.96074 20.3684 10.599 20.8018 11.1799 20.44L22.3326 12.1795C22.5524 11.9865 22.7272 11.7477 22.8447 11.4799C22.9621 11.2121 23.0126 10.9066 23.0126 10.6242V3.37381C23.0126 2.73531 22.7343 2.50016 22.2299 2.1875C22.158 2.15171 22.0812 2.12133 22.0018 2.0968V10.6242C22.0018 11.1097 21.7439 11.352 21.3681 11.654C21.0674 11.8957 13.7062 17.2176 10.0631 19.8483ZM9.07192 29.3578C9.00004 29.2503 8.94311 29.134 8.90234 29.0121H24.933C24.8903 29.1436 24.8285 29.2687 24.7494 29.3832C24.6204 29.5698 24.4489 29.7231 24.2491 29.8303C24.0492 29.9375 23.8267 29.9957 23.5999 30H10.1999C9.97493 29.9879 9.75585 29.9236 9.56005 29.8122C9.36425 29.7007 9.19712 29.5451 9.07192 29.3578ZM22.5614 15.0059L22.7457 16.0283H24.0112C24.6743 16.0283 25.0058 15.5585 25.0058 15.0059H22.5614Z" fill="#FCD53F"/>
</svg>

<svg xmlns="http://www.w3.org/2000/svg" width="32" height="32" fill="none"><path fill="#00F397" d="M19.39 4.958h5.613V15l-2.503.5-3.11-.5V4.958Z"/><path fill="#37C9CD" d="M10.387 20 8.91 28.07c-.05.25-.1.44-.071.663.028.224.233.625.233.625l15.677.025s.212-.4.242-.626c.03-.225-.026-.425-.071-.667L22.74 16l.26-.5-.44-.5-.69-3.83L10.387 20Z"/><path fill="#FF8257" d="M12 12.08V7.41l-1.5.94a.37.37 0 0 1-.5-.15L8.19 4.87a.43.43 0 0 1 .14-.56l3.16-2a1.92 1.92 0 0 1 1-.31h8.26l.75.31h.93l3.16 2a.43.43 0 0 1 .14.56L24.05 8.2a.37.37 0 0 1-.52.15L22 7.41v4.67H12Z"/><path fill="#8C5543" d="M14.18 2v.1A3 3 0 0 0 17 5.17a3 3 0 0 0 2.81-3.07V2h-5.63Z"/><path fill="#6AFCAC" d="M10.063 19.848c-.102.52.356.014.937-.348l11-7.875s.715-5.137.5-8.125c0-.675.196-1.015-.308-1.328A1.93 1.93 0 0 0 21.367 2h-.734c-.36 0-.133.1-.133.5v1c0 2.1-2.5 4-2.5 4-1.6 1.123-4 3.5-6.58 4.52l-1.357 7.828Z"/><path fill="#FCD53F" d="M17.71 7.24S20 5.88 20 3.78V2.629c0-.4.271-.629.632-.629h.392v1.428c0 2.204-1.303 3.626-2.865 4.72-1.413.99-5.043 3.551-6.918 4.883l.178-1.011a1.001 1.001 0 0 1 .46-.69l5.83-4.09Zm-7.647 12.608c-.102.52.536.954 1.117.592l11.153-8.26a2 2 0 0 0 .512-.7 2.17 2.17 0 0 0 .168-.856v-7.25c0-.639-.279-.874-.783-1.187a1.52 1.52 0 0 0-.228-.09v8.527c0 .486-.258.728-.634 1.03-.3.242-7.662 5.564-11.305 8.194Zm-.991 9.51a1.448 1.448 0 0 1-.17-.346h16.031A1.43 1.43 0 0 1 23.6 30H10.2a1.452 1.452 0 0 1-1.128-.642Zm13.49-14.352.184 1.022h1.265c.663 0 .995-.47.995-1.022H22.56Z"/></svg>
